X: 36594
T: Sham's Palace
R: reel
M: 4/4
K: Amajor
Ec~c2 cBAc|BEGB ADFA|~E3c cBAB|cffe fdfg|
a2~c2 cBAc|BEGB BA~F2|~E3c cBAc|1 BEGB ADFA:|2 BEGB A3B||
|:cf~f2 dfaf|fcfa gfef|cf~f2 dfaf|gfeg fegb|
ac~c2 caAc|BGBG ADFA|~E2cd cBAc|1 BEGB A3B:|2 BEGB A3F||

